X: 1
T: Golden Slippers
P: piffero primo a0746
O: cfd bk2
%R: march
F: http://ancients.sudburymuster.org/mus/sng/pdf/goldenslipC0.pdf
Z: 2020 John Chambers <jc:trillian.mit.edu>
M: 2/4
L: 1/16
K: D
de |\
f2f2 f2de | f2f2 f2de | f2f2 fefg | f2e2 e2cd |\
e2e2 e2cd | e2e2 e2cd | e2g2 f2e2 | d4 z2 :|
z2 |:\
A6 d2 | f2e2 d2c2 | B6 e2 | g2f2 e2d2 |\
[1 c3c c2d2 | e3e e2c2 | d3c d2e2 | f2(a2 b2a) :|\
[|2 c3c c2d2 | e3e e2g2 | f3g f2e2 | d4 z2 |]
